X: 4038
T: Blarney Pilgrim, The
R: jig
M: 6/8
K: Dmixolydian
DED DEG|A2G ABc|BAG AGE|GEA GED|
DED DEG|A2G ABc|BAG AGE|GED D3:|
|:ded dBG|AGA BGE|ded dBG|AGA B2e/f/|
g2e dBG|AGA Bcd|cBA BAG|AGE D3:|
|:A2D B2D|A2D ABc|BAG AGE|GEA GED|
A2D B2D|A2D ABc|BAG AGE|GED D3:|

